X:1
T:COME FOLLOW - CANONE
L:1/8
Q:1/4=100
M:4/4
K:C
V:1 treble nm="Voice" snm="Vo."
V:1
"^Moderato" c4 B2 B2 | A2 A2 G2 G2 | F2 F2 E2 C2 | F2 G2 !fermata!C4 | CDEF G2 E2 | F2 D2 G2 E2 | %6
w: Come fol- low|fol- low fol- low|fol- low fol- low|fol- low me.|whi- ther shall I fol- low|fol- low fol- low|
 FGAB c2 G2 | c2 d2 !fermata!e4 | e3 e d2 e2 | c3 c B2 c2 | A2 A2 G2 e2 | d2 G2 !fermata!c4 |] %12
w: whi ther shall I fol- low|fol- low thee|to the green- wood|to the green- wood|to the green- wood|green- wood tree|

